images/item-started2.svg

<svg width="32" height="32" viewBox="0 0 32 32" fill="none" xmlns="http://www.w3.org/2000/svg">
<path fill-rule="evenodd" clip-rule="evenodd" d="M16.5451 3.62458C16.2085 3.61014 15.8754 3.69804 15.5898 3.8767C15.3069 4.05366 15.0837 4.31143 14.949 4.61656L14.8295 4.90873C14.633 5.37437 14.3425 5.79436 13.976 6.14238C13.6096 6.4904 13.1752 6.75891 12.7 6.93106C12.2249 7.10322 11.7193 7.17529 11.215 7.14276C10.7106 7.11023 10.2185 6.9738 9.7694 6.74204L9.76399 6.73925L9.49671 6.59922C9.19871 6.45526 8.86451 6.40324 8.53671 6.44994C8.20515 6.49716 7.89552 6.64318 7.64816 6.86895C7.4008 7.09472 7.2272 7.38977 7.14998 7.71564C7.07409 8.03589 7.09474 8.37131 7.20912 8.67963L7.32473 8.94939C7.52106 9.42146 7.61643 9.9294 7.60483 10.4405C7.59324 10.9517 7.47487 11.4548 7.25734 11.9174C7.03981 12.3801 6.72792 12.7922 6.3417 13.1272C5.95547 13.4622 5.50346 13.7128 5.01468 13.8627L5.0125 13.8634L4.72123 13.9521C4.40692 14.0604 4.13209 14.2603 3.93219 14.5262C3.72973 14.7954 3.61363 15.1197 3.59919 15.4563C3.58475 15.7929 3.67265 16.126 3.85131 16.4116C4.02828 16.6945 4.28606 16.9177 4.5912 17.0524L4.88334 17.172C5.34898 17.3684 5.76897 17.659 6.11699 18.0254C6.46501 18.3918 6.73352 18.8263 6.90567 19.3014C7.07783 19.7765 7.1499 20.2821 7.11737 20.7865C7.08484 21.2908 6.94841 21.7829 6.71665 22.232L6.71386 22.2374L6.57243 22.5074C6.4249 22.8075 6.37105 23.1452 6.41799 23.4764C6.46535 23.8106 6.61307 24.1226 6.84162 24.371C7.07016 24.6194 7.36875 24.7926 7.69787 24.8676C8.02328 24.9417 8.36338 24.9165 8.67413 24.7952L8.95066 24.6767C9.42274 24.4804 9.93067 24.385 10.4418 24.3966C10.953 24.4082 11.456 24.5265 11.9187 24.7441C12.3814 24.9616 12.7935 25.2735 13.1285 25.6597C13.4635 26.0459 13.714 26.4979 13.864 26.9867L13.8647 26.9889L13.9533 27.2802C14.0617 27.5945 14.2616 27.8693 14.5274 28.0692C14.7967 28.2717 15.121 28.3878 15.4576 28.4022C15.7942 28.4167 16.1272 28.3288 16.4129 28.1501C16.6958 27.9731 16.919 27.7154 17.0537 27.4102L17.1732 27.1181C17.3696 26.6524 17.6602 26.2324 18.0267 25.8844C18.3931 25.5364 18.8275 25.2679 19.3027 25.0957C19.7778 24.9236 20.2834 24.8515 20.7877 24.884C21.292 24.9166 21.7842 25.053 22.2333 25.2848L22.2387 25.2875L22.5086 25.429C22.8088 25.5765 23.1464 25.6304 23.4777 25.5834C23.8119 25.5361 24.1239 25.3883 24.3723 25.1598C24.6207 24.9312 24.7939 24.6327 24.8689 24.3035C24.943 23.9781 24.9177 23.638 24.7965 23.3273L24.6779 23.0507C24.4816 22.5787 24.3862 22.0707 24.3978 21.5596C24.4094 21.0484 24.5278 20.5454 24.7453 20.0827C24.9629 19.62 25.2748 19.2079 25.661 18.8729C26.0472 18.5379 26.4992 18.2874 26.988 18.1374L26.9902 18.1367L27.2814 18.0481C27.5957 17.9398 27.8706 17.7399 28.0705 17.474C28.273 17.2047 28.3891 16.8804 28.4035 16.5438C28.4179 16.2072 28.33 15.8742 28.1514 15.5885C27.9744 15.3056 27.7166 15.0824 27.4115 14.9477L27.1193 14.8282C26.6537 14.6318 26.2337 14.3412 25.8857 13.9747C25.5377 13.6083 25.2692 13.1739 25.097 12.6987C24.9249 12.2236 24.8528 11.718 24.8853 11.2137C24.9178 10.7094 25.0543 10.2172 25.286 9.76812L25.2888 9.76272L25.4303 9.49272C25.5778 9.19259 25.6316 8.85496 25.5847 8.52372C25.5373 8.1895 25.3896 7.87754 25.1611 7.62912C24.9325 7.3807 24.6339 7.20754 24.3048 7.13254C23.9794 7.05839 23.6393 7.08365 23.3286 7.20492L23.0548 7.32228C22.5851 7.51926 22.0795 7.6162 21.5702 7.60697C21.061 7.59774 20.5592 7.48251 20.097 7.26864C19.6347 7.05476 19.2221 6.74692 18.8854 6.36475C18.5487 5.98257 18.2953 5.53444 18.1414 5.04892L18.1379 5.03791L18.0494 4.74665C17.941 4.43233 17.7411 4.15749 17.4752 3.95758C17.206 3.75512 16.8817 3.63902 16.5451 3.62458ZM14.5292 2.18109C15.1576 1.78804 15.8903 1.59465 16.6308 1.62642C17.3713 1.65818 18.0848 1.9136 18.6772 2.35901C19.2696 2.80442 19.7131 3.41891 19.9492 4.12145L19.958 4.14891L20.0495 4.44938C20.1196 4.66821 20.2342 4.8702 20.3861 5.04265C20.5391 5.21637 20.7267 5.35629 20.9368 5.45351C21.1469 5.55073 21.375 5.6031 21.6065 5.6073C21.8368 5.61148 22.0655 5.56786 22.2781 5.47921L22.5541 5.36092L22.5781 5.35101C23.268 5.07628 24.0251 5.01753 24.7492 5.18253C25.4732 5.34752 26.1301 5.72849 26.6329 6.27501C27.1357 6.82153 27.4607 7.50784 27.5649 8.24312C27.6691 8.9784 27.5476 9.72798 27.2164 10.3927L27.2072 10.4107L27.0633 10.6853C27.0629 10.6861 27.0625 10.6869 27.0621 10.6877C26.9575 10.8912 26.8959 11.1141 26.8812 11.3424C26.8664 11.5716 26.8991 11.8015 26.9774 12.0174C27.0556 12.2334 27.1777 12.4309 27.3359 12.5974C27.493 12.7629 27.6824 12.8942 27.8923 12.9835L28.18 13.1012L28.2 13.1096C28.8797 13.4051 29.4539 13.8996 29.847 14.5279C30.24 15.1563 30.4334 15.889 30.4017 16.6295C30.3699 17.37 30.1145 18.0835 29.6691 18.6759C29.2236 19.2683 28.6092 19.7118 27.9066 19.9479L27.8792 19.9567L27.5747 20.0494C27.5743 20.0495 27.575 20.0493 27.5747 20.0494C27.3529 20.1176 27.1468 20.2317 26.9715 20.3837C26.7959 20.536 26.6542 20.7233 26.5553 20.9336C26.4564 21.1439 26.4026 21.3726 26.3973 21.6049C26.3921 21.8357 26.4349 22.0651 26.5229 22.2784L26.6405 22.5528L26.6504 22.5768C26.9251 23.2667 26.9839 24.0238 26.8189 24.7479C26.6539 25.472 26.2729 26.1289 25.7264 26.6316C25.1799 27.1344 24.4936 27.4594 23.7583 27.5636C23.023 27.6678 22.2734 27.5463 21.6087 27.2151L21.5907 27.2059L21.3161 27.062C21.3153 27.0616 21.3145 27.0613 21.3138 27.0609C21.1103 26.9562 20.8874 26.8946 20.659 26.8799C20.4298 26.8651 20.1999 26.8979 19.984 26.9761C19.768 27.0544 19.5705 27.1764 19.404 27.3346C19.2386 27.4917 19.1072 27.6811 19.0179 27.891L18.9002 28.1787L18.8918 28.1987C18.5963 28.8784 18.1018 29.4527 17.4735 29.8457C16.8451 30.2388 16.1124 30.4321 15.3719 30.4004C14.6314 30.3686 13.9179 30.1132 13.3255 29.6678C12.7331 29.2224 12.2896 28.6079 12.0535 27.9054L12.0447 27.8779L11.952 27.5734C11.9519 27.5731 11.9521 27.5737 11.952 27.5734C11.8838 27.3516 11.7698 27.1455 11.6177 26.9702C11.4654 26.7947 11.2781 26.6529 11.0678 26.554C10.8575 26.4551 10.6288 26.4013 10.3965 26.3961C10.1657 26.3908 9.93633 26.4336 9.72297 26.5216L9.44859 26.6392L9.42461 26.6491C8.73467 26.9238 7.97758 26.9826 7.25351 26.8176C6.52945 26.6526 5.87255 26.2716 5.36976 25.7251C4.86696 25.1786 4.54196 24.4923 4.43777 23.757C4.33358 23.0217 4.45511 22.2721 4.78628 21.6075L4.79551 21.5894L4.93937 21.3148C4.93979 21.314 4.94021 21.3132 4.94062 21.3124C5.04521 21.1089 5.10679 20.886 5.12152 20.6577C5.1363 20.4285 5.10354 20.1987 5.02529 19.9827C4.94704 19.7667 4.82499 19.5693 4.6668 19.4027C4.5097 19.2373 4.32032 19.1059 4.11041 19.0166L3.82271 18.8989L3.80272 18.8905C3.12299 18.5951 2.54874 18.1006 2.1557 17.4722C1.76265 16.8438 1.56926 16.1111 1.60103 15.3706C1.63279 14.6301 1.88821 13.9166 2.33362 13.3242C2.77903 12.7318 3.39352 12.2883 4.09606 12.0522L4.12351 12.0434L4.428 11.9507C4.42769 11.9508 4.42832 11.9506 4.428 11.9507C4.64982 11.8825 4.85589 11.7685 5.03119 11.6164C5.20675 11.4641 5.34852 11.2768 5.4474 11.0665C5.54627 10.8562 5.60008 10.6275 5.60535 10.3952C5.61058 10.1644 5.56783 9.93512 5.47983 9.72179L5.3622 9.44732L5.34745 9.41094C5.08402 8.72287 5.03398 7.97139 5.20387 7.25447C5.37376 6.53755 5.75569 5.88843 6.29988 5.39174C6.84406 4.89505 7.52526 4.57382 8.25467 4.46992C8.98409 4.36602 9.72789 4.48428 10.3891 4.80928L10.412 4.8209L10.689 4.966C10.8925 5.0706 11.1154 5.13218 11.3437 5.14691C11.5729 5.16169 11.8027 5.12893 12.0187 5.05068C12.2347 4.97243 12.4322 4.85038 12.5987 4.69219C12.7641 4.53509 12.8955 4.34573 12.9848 4.13583L13.1025 3.8481L13.1109 3.82811C13.4063 3.14838 13.9008 2.57413 14.5292 2.18109Z" fill="#8060F6"/>
<path fill-rule="evenodd" clip-rule="evenodd" d="M16.0024 11.7871C13.6754 11.7871 11.7891 13.6735 11.7891 16.0004C11.7891 18.3274 13.6754 20.2138 16.0024 20.2138C18.3294 20.2138 20.2157 18.3274 20.2157 16.0004C20.2157 13.6735 18.3294 11.7871 16.0024 11.7871ZM9.78906 16.0004C9.78906 12.5689 12.5709 9.78711 16.0024 9.78711C19.4339 9.78711 22.2157 12.5689 22.2157 16.0004C22.2157 19.432 19.4339 22.2138 16.0024 22.2138C12.5709 22.2138 9.78906 19.432 9.78906 16.0004Z" fill="#292758"/>
</svg>

<svg width="32" height="32" fill="none" xmlns="http://www.w3.org/2000/svg"><path fill-rule="evenodd" clip-rule="evenodd" d="M16.545 3.625a1.667 1.667 0 0 0-1.596.992l-.12.292a3.667 3.667 0 0 1-5.06 1.833l-.005-.003-.267-.14a1.667 1.667 0 0 0-2.288 2.08l.116.27a3.666 3.666 0 0 1-2.31 4.914h-.002l-.292.09a1.666 1.666 0 0 0-.13 3.1l.292.119a3.667 3.667 0 0 1 1.834 5.06l-.003.005-.142.27a1.667 1.667 0 0 0 2.102 2.288l.277-.118a3.667 3.667 0 0 1 4.913 2.31v.002l.09.291a1.668 1.668 0 0 0 3.1.13l.12-.292a3.665 3.665 0 0 1 5.06-1.833l.005.003.27.141a1.667 1.667 0 0 0 2.288-2.102l-.12-.276a3.667 3.667 0 0 1 2.311-4.914h.002l.291-.089a1.666 1.666 0 0 0 .13-3.1l-.292-.12a3.666 3.666 0 0 1-1.833-5.06l.003-.005.141-.27a1.667 1.667 0 0 0-2.101-2.288l-.274.117A3.667 3.667 0 0 1 18.14 5.05l-.003-.011-.089-.291a1.667 1.667 0 0 0-1.504-1.122ZM14.53 2.18a3.667 3.667 0 0 1 5.42 1.94l.009.028.091.3a1.667 1.667 0 0 0 2.23 1.03l.275-.118.024-.01a3.667 3.667 0 0 1 4.638 5.042l-.009.018-.144.274v.003a1.667 1.667 0 0 0 .83 2.295l.287.118.02.009a3.668 3.668 0 0 1-.293 6.838l-.028.009-.304.092a1.672 1.672 0 0 0-1.02.885 1.667 1.667 0 0 0-.032 1.344l.117.275.01.024a3.667 3.667 0 0 1-5.041 4.638l-.018-.01-.275-.143-.002-.001a1.665 1.665 0 0 0-2.296.83l-.118.288-.008.02a3.667 3.667 0 0 1-6.838-.294l-.01-.027-.092-.305a1.67 1.67 0 0 0-1.556-1.177c-.23-.005-.46.038-.673.126l-.274.117-.024.01a3.667 3.667 0 0 1-4.639-5.041l.01-.019.143-.274.002-.003a1.667 1.667 0 0 0-.83-2.295l-.288-.118-.02-.009a3.666 3.666 0 0 1 .293-6.838l.028-.009.304-.092a1.67 1.67 0 0 0 1.177-1.556c.006-.23-.037-.46-.125-.673l-.118-.275-.015-.036a3.667 3.667 0 0 1 5.042-4.602l.023.012.277.145a1.667 1.667 0 0 0 2.296-.83l.117-.288.009-.02c.295-.68.79-1.254 1.418-1.647Z" fill="#8060F6"/><path fill-rule="evenodd" clip-rule="evenodd" d="M16.002 11.787a4.213 4.213 0 1 0 0 8.427 4.213 4.213 0 0 0 0-8.427ZM9.79 16a6.213 6.213 0 1 1 12.427 0 6.213 6.213 0 0 1-12.427 0Z" fill="#292758"/></svg>
